!!!OTL: HINWEG MIT DEN SORGEN
!!!ARE: Europa, Mitteleuropa, Deutschland
!!!SCT: F0690
!!!YEM: Copyright 1995, estate of Helmut Schaffrath.
**kern
*ICvox
*Ivox
*M6/8
*k[]
*C:
{8G
=1
4.c
4G
8G
=2
4.E
4C}
{8e
=3
2d
8c
8d
=4
2e
8r}
{8d
=5
2c
8B
8A
=6
2d
8c}
{8B
=7
2A
8B
8A
=8
4.G
4r}
{8G
=9
4.d
8e
8d
8e
=10
4.f
4d}
{8d
=11
4.e
8f
8e
8f
=12
[4.g
4g]}
{8f
=13
2e
8d
8c
=14
2c
8B}
{8A
=15
2G
8A
8B
=16
4.c
4r}
==
!!!AGN: Geselligkeits -, Tageszeiten - Lied, Morgen
!!!ONB: ESAC (Essen Associative Code) Database: FINK
!!!AMT: compound duple
!!!AIN: vox
!!!EED: Helmut Schaffrath
!!!EEV: 1.0
*-
